assets/Control knobs/Flat/control_knobs_flat.svg

<svg width="32" height="32" viewBox="0 0 32 32" fill="none" xmlns="http://www.w3.org/2000/svg">
<path d="M26.27 2H5.75C3.68 2 2 3.68 2 5.75V26.23C2 28.3 3.68 29.98 5.75 29.98H26.27C28.34 29.98 30.02 28.3 30.02 26.23V5.75C30.02 3.68 28.34 2 26.27 2Z" fill="#BEBEBE"/>
<path fill-rule="evenodd" clip-rule="evenodd" d="M18.1699 11.0898C18.1699 13.5798 20.1999 15.6098 22.6899 15.6098C25.1799 15.6098 27.2099 13.5798 27.2099 11.0898C27.2099 8.59982 25.1799 6.56982 22.6899 6.56982C20.1999 6.56982 18.1699 8.59982 18.1699 11.0898ZM6.2199 14.2798C7.0999 15.1598 8.2599 15.5998 9.4199 15.5998C10.5799 15.5998 11.7299 15.1598 12.6099 14.2798C14.3699 12.5198 14.3699 9.64982 12.6099 7.88982C10.8499 6.12982 7.9799 6.12982 6.2199 7.88982C4.4599 9.64982 4.4599 12.5198 6.2199 14.2798ZM9.4199 27.4998C6.9299 27.4998 4.8999 25.4698 4.8999 22.9798C4.8999 20.4898 6.9299 18.4598 9.4199 18.4598C11.9099 18.4598 13.9399 20.4898 13.9399 22.9798C13.9399 25.4698 11.9099 27.4998 9.4199 27.4998ZM19.4899 26.1798C20.3699 27.0598 21.5299 27.4998 22.6899 27.4998C23.8399 27.4998 24.9999 27.0598 25.8799 26.1798C27.6399 24.4198 27.6399 21.5498 25.8799 19.7898C24.1199 18.0298 21.2499 18.0298 19.4899 19.7898C17.7299 21.5498 17.7299 24.4198 19.4899 26.1798Z" fill="#D3D3D3"/>
<path fill-rule="evenodd" clip-rule="evenodd" d="M12.8298 11.0897C12.8298 12.973 11.3031 14.4997 9.41977 14.4997C7.53647 14.4997 6.00977 12.973 6.00977 11.0897C6.00977 9.2064 7.53647 7.67969 9.41977 7.67969C11.3031 7.67969 12.8298 9.2064 12.8298 11.0897ZM26.0998 11.0897C26.0998 12.973 24.5731 14.4997 22.6898 14.4997C20.8065 14.4997 19.2798 12.973 19.2798 11.0897C19.2798 9.2064 20.8065 7.67969 22.6898 7.67969C24.5731 7.67969 26.0998 9.2064 26.0998 11.0897ZM9.41977 26.3897C11.3031 26.3897 12.8298 24.863 12.8298 22.9797C12.8298 21.0964 11.3031 19.5697 9.41977 19.5697C7.53647 19.5697 6.00977 21.0964 6.00977 22.9797C6.00977 24.863 7.53647 26.3897 9.41977 26.3897ZM26.0998 22.9797C26.0998 24.863 24.5731 26.3897 22.6898 26.3897C20.8065 26.3897 19.2798 24.863 19.2798 22.9797C19.2798 21.0964 20.8065 19.5697 22.6898 19.5697C24.5731 19.5697 26.0998 21.0964 26.0998 22.9797Z" fill="#0092E7"/>
<path d="M9.42011 4.22998C9.11204 4.22998 8.86011 4.48191 8.86011 4.78998V5.71998C8.86011 6.02805 9.11204 6.27998 9.42011 6.27998C9.72818 6.27998 9.98011 6.02805 9.98011 5.71998V4.78998C9.98011 4.48191 9.72818 4.22998 9.42011 4.22998Z" fill="#636363"/>
<path d="M6.75721 5.35593C6.61153 5.10099 6.26827 4.98955 5.99153 5.15559C5.72449 5.31582 5.63646 5.64558 5.79225 5.92253L6.25755 6.73175L6.26214 6.73864C6.36318 6.8902 6.53739 6.99996 6.74015 6.99996C6.82566 6.99996 6.92125 6.98222 7.01649 6.9257C7.28174 6.77242 7.35867 6.43075 7.22082 6.17227L6.75721 5.35593Z" fill="#636363"/>
<path d="M12.0718 5.3683C12.2224 5.0914 12.5685 5.00734 12.8335 5.16239C13.1102 5.31399 13.1932 5.66143 13.036 5.92631L12.5777 6.72327C12.4804 6.89671 12.2843 6.99997 12.1002 6.99997C12.0337 6.99997 11.9142 6.98933 11.8119 6.91839C11.5591 6.75983 11.4639 6.42719 11.6132 6.16593L12.0718 5.3683Z" fill="#636363"/>
<path d="M22.6901 4.23999C22.3821 4.23999 22.1301 4.49192 22.1301 4.79999V5.71999C22.1301 6.02806 22.3821 6.27999 22.6901 6.27999C23.0062 6.27999 23.2323 6.02286 23.2496 5.74558L23.2501 5.7378V4.79999C23.2501 4.49192 22.9982 4.23999 22.6901 4.23999Z" fill="#636363"/>
<path d="M19.2638 5.16425C19.54 5.00023 19.8817 5.1116 20.0271 5.36562L20.4908 6.17233C20.6286 6.4308 20.5518 6.77243 20.2865 6.92571C20.1913 6.98223 20.0957 6.99997 20.0102 6.99997C19.8074 6.99997 19.6332 6.89021 19.5322 6.73865L19.5276 6.73176L19.0596 5.91762C18.9217 5.65915 18.9986 5.31754 19.2638 5.16425Z" fill="#636363"/>
<path d="M25.3518 5.3683C25.5023 5.0914 25.8484 5.00734 26.1134 5.16239C26.3902 5.31399 26.4732 5.66143 26.3159 5.92631L25.8528 6.73176L25.8482 6.73864C25.7447 6.8939 25.5588 6.99997 25.3702 6.99997C25.3049 6.99997 25.1886 6.98973 25.0876 6.92229C24.8184 6.76804 24.739 6.42548 24.8945 6.16362L25.3518 5.3683Z" fill="#636363"/>
<path d="M9.42011 16.12C9.11204 16.12 8.86011 16.3719 8.86011 16.68V17.61C8.86011 17.9181 9.11204 18.17 9.42011 18.17C9.72818 18.17 9.98011 17.9181 9.98011 17.61V16.68C9.98011 16.3719 9.72818 16.12 9.42011 16.12Z" fill="#636363"/>
<path d="M6.00251 17.0495C6.26162 16.9113 6.6043 16.9888 6.75702 17.2557L7.22074 18.0624C7.3586 18.3209 7.28174 18.6625 7.0165 18.8158C6.92125 18.8723 6.82566 18.89 6.74016 18.89C6.5374 18.89 6.36318 18.7803 6.26214 18.6287L6.25755 18.6218L5.78957 17.8077C5.65132 17.5485 5.72902 17.2056 5.99612 17.053L6.00251 17.0495Z" fill="#636363"/>
<path d="M12.0816 17.2583C12.2322 16.9814 12.5783 16.8974 12.8433 17.0524C13.12 17.204 13.203 17.5514 13.0458 17.8163L12.5844 18.6186C12.4734 18.8037 12.2758 18.89 12.1001 18.89C12.0347 18.89 11.9184 18.8797 11.8175 18.8123C11.5482 18.6581 11.4688 18.3155 11.6243 18.0536L12.0816 17.2583Z" fill="#636363"/>
<path d="M22.6901 16.12C22.3821 16.12 22.1301 16.3719 22.1301 16.68V17.61C22.1301 17.9181 22.3821 18.17 22.6901 18.17C23.0107 18.17 23.233 17.9078 23.2497 17.6247L23.2501 17.6173V16.68C23.2501 16.3719 22.9982 16.12 22.6901 16.12Z" fill="#636363"/>
<path d="M19.2725 17.0495C19.5316 16.9113 19.8743 16.9888 20.027 17.2557L20.4908 18.0624C20.6286 18.3209 20.5518 18.6625 20.2865 18.8158C20.1913 18.8723 20.0957 18.89 20.0102 18.89C19.8074 18.89 19.6332 18.7803 19.5322 18.6287L19.5276 18.6218L19.0596 17.8077C18.9213 17.5485 18.999 17.2056 19.2661 17.053L19.2725 17.0495Z" fill="#636363"/>
<path d="M25.3518 17.2583C25.5023 16.9814 25.8484 16.8974 26.1134 17.0524C26.3902 17.204 26.4732 17.5514 26.3159 17.8163L25.8528 18.6218L25.8482 18.6287C25.7447 18.7839 25.5588 18.89 25.3702 18.89C25.3049 18.89 25.1886 18.8797 25.0876 18.8123C24.8184 18.6581 24.739 18.3155 24.8945 18.0536L25.3518 17.2583Z" fill="#636363"/>
<path fill-rule="evenodd" clip-rule="evenodd" d="M11.5535 9.66361C11.7487 9.46835 11.7487 9.15177 11.5535 8.95651C11.3582 8.76124 11.0416 8.76124 10.8464 8.95651L9.06637 10.7365C8.87111 10.9318 8.87111 11.2484 9.06637 11.4436C9.26163 11.6389 9.57821 11.6389 9.77348 11.4436L11.5535 9.66361ZM20.1699 10.5901C19.8938 10.5901 19.6699 10.8139 19.6699 11.0901C19.6699 11.3662 19.8938 11.5901 20.1699 11.5901H22.6899C22.9661 11.5901 23.1899 11.3662 23.1899 11.0901C23.1899 10.8139 22.9661 10.5901 22.6899 10.5901H20.1699ZM9.41992 22.4801H11.9299C12.2061 22.4801 12.4299 22.704 12.4299 22.9801C12.4299 23.2562 12.2061 23.4801 11.9299 23.4801H9.41992C9.14378 23.4801 8.91992 23.2562 8.91992 22.9801C8.91992 22.704 9.14378 22.4801 9.41992 22.4801ZM21.2635 20.8465C21.0682 20.6513 20.7516 20.6513 20.5564 20.8465C20.3611 21.0418 20.3611 21.3584 20.5564 21.5536L22.3364 23.3336C22.5316 23.5289 22.8482 23.5289 23.0435 23.3336C23.2387 23.1384 23.2387 22.8218 23.0435 22.6265L21.2635 20.8465Z" fill="#F4F4F4"/>
</svg>

<svg xmlns="http://www.w3.org/2000/svg" width="32" height="32" fill="none"><path fill="#BEBEBE" d="M26.27 2H5.75C3.68 2 2 3.68 2 5.75v20.48c0 2.07 1.68 3.75 3.75 3.75h20.52c2.07 0 3.75-1.68 3.75-3.75V5.75c0-2.07-1.68-3.75-3.75-3.75Z"/><path fill="#D3D3D3" fill-rule="evenodd" d="M18.17 11.09c0 2.49 2.03 4.52 4.52 4.52 2.49 0 4.52-2.03 4.52-4.52 0-2.49-2.03-4.52-4.52-4.52-2.49 0-4.52 2.03-4.52 4.52ZM6.22 14.28c.88.88 2.04 1.32 3.2 1.32 1.16 0 2.31-.44 3.19-1.32a4.527 4.527 0 0 0 0-6.39 4.527 4.527 0 0 0-6.39 0 4.527 4.527 0 0 0 0 6.39Zm3.2 13.22c-2.49 0-4.52-2.03-4.52-4.52 0-2.49 2.03-4.52 4.52-4.52 2.49 0 4.52 2.03 4.52 4.52 0 2.49-2.03 4.52-4.52 4.52Zm10.07-1.32c.88.88 2.04 1.32 3.2 1.32 1.15 0 2.31-.44 3.19-1.32a4.527 4.527 0 0 0 0-6.39 4.527 4.527 0 0 0-6.39 0 4.527 4.527 0 0 0 0 6.39Z" clip-rule="evenodd"/><path fill="#0092E7" fill-rule="evenodd" d="M12.83 11.09a3.41 3.41 0 1 1-6.82 0 3.41 3.41 0 0 1 6.82 0Zm13.27 0a3.41 3.41 0 1 1-6.82 0 3.41 3.41 0 0 1 6.82 0ZM9.42 26.39a3.41 3.41 0 1 0 0-6.82 3.41 3.41 0 0 0 0 6.82Zm16.68-3.41a3.41 3.41 0 1 1-6.82 0 3.41 3.41 0 0 1 6.82 0Z" clip-rule="evenodd"/><path fill="#636363" d="M9.42 4.23a.562.562 0 0 0-.56.56v.93c0 .308.252.56.56.56.308 0 .56-.252.56-.56v-.93a.562.562 0 0 0-.56-.56ZM6.757 5.356a.56.56 0 1 0-.965.567l.466.809.004.007A.578.578 0 0 0 6.74 7a.532.532 0 0 0 .276-.074.566.566 0 0 0 .205-.754l-.464-.816ZM12.072 5.368a.548.548 0 0 1 .762-.206c.276.152.36.5.202.764l-.458.797A.56.56 0 0 1 12.1 7a.564.564 0 0 1-.487-.834l.459-.798ZM22.69 4.24a.562.562 0 0 0-.56.56v.92c0 .308.252.56.56.56a.566.566 0 0 0 .56-.534V4.8a.562.562 0 0 0-.56-.56ZM19.264 5.164a.557.557 0 0 1 .763.202l.464.806c.138.259.06.6-.204.754A.532.532 0 0 1 20.01 7a.578.578 0 0 1-.478-.261l-.004-.007-.468-.814a.566.566 0 0 1 .204-.754ZM25.352 5.368a.548.548 0 0 1 .761-.206c.277.152.36.5.203.764l-.463.806-.005.007A.592.592 0 0 1 25.37 7a.517.517 0 0 1-.282-.078.548.548 0 0 1-.194-.758l.458-.796ZM9.42 16.12a.562.562 0 0 0-.56.56v.93c0 .308.252.56.56.56.308 0 .56-.252.56-.56v-.93a.562.562 0 0 0-.56-.56ZM6.003 17.05a.565.565 0 0 1 .754.206l.464.806c.138.259.06.6-.205.754a.532.532 0 0 1-.276.074.578.578 0 0 1-.478-.261l-.004-.007-.468-.814a.566.566 0 0 1 .206-.755l.007-.004ZM12.082 17.258a.548.548 0 0 1 .761-.206c.277.152.36.5.203.764l-.462.803a.567.567 0 0 1-.766.193.548.548 0 0 1-.194-.758l.458-.796ZM22.69 16.12a.562.562 0 0 0-.56.56v.93c0 .308.252.56.56.56.32 0 .543-.262.56-.545V16.68a.562.562 0 0 0-.56-.56ZM19.273 17.05a.565.565 0 0 1 .754.206l.464.806c.138.259.06.6-.204.754a.532.532 0 0 1-.277.074.578.578 0 0 1-.478-.261l-.004-.007-.468-.814a.565.565 0 0 1 .206-.755l.007-.004ZM25.352 17.258a.548.548 0 0 1 .761-.206c.277.152.36.5.203.764l-.463.806-.005.007a.592.592 0 0 1-.478.261.517.517 0 0 1-.282-.078.548.548 0 0 1-.194-.758l.458-.796Z"/><path fill="#F4F4F4" fill-rule="evenodd" d="M11.553 9.664a.5.5 0 0 0-.707-.707l-1.78 1.78a.5.5 0 1 0 .707.707l1.78-1.78Zm8.617.926a.5.5 0 1 0 0 1h2.52a.5.5 0 1 0 0-1h-2.52ZM9.42 22.48h2.51a.5.5 0 1 1 0 1H9.42a.5.5 0 0 1 0-1Zm11.844-1.634a.5.5 0 0 0-.708.708l1.78 1.78a.5.5 0 1 0 .708-.707l-1.78-1.78Z" clip-rule="evenodd"/></svg>
